img/favicon-touch.svg

<?xml version="1.0" encoding="UTF-8" standalone="no"?>
<!-- Generator: Adobe Illustrator 15.0.0, SVG Export Plug-In . SVG Version: 6.00 Build 0)  -->

<svg
   xmlns:dc="http://purl.org/dc/elements/1.1/"
   xmlns:cc="http://creativecommons.org/ns#"
   xmlns:rdf="http://www.w3.org/1999/02/22-rdf-syntax-ns#"
   xmlns:svg="http://www.w3.org/2000/svg"
   xmlns="http://www.w3.org/2000/svg"
   xmlns:sodipodi="http://sodipodi.sourceforge.net/DTD/sodipodi-0.dtd"
   xmlns:inkscape="http://www.inkscape.org/namespaces/inkscape"
   version="1.1"
   id="Ebene_1"
   x="0px"
   y="0px"
   width="128.001px"
   height="128.001px"
   viewBox="-48 -48 128.001 128.001"
   enable-background="new -48 -48 128.001 128.001"
   xml:space="preserve"
   sodipodi:docname="favicon-touch.svg"
   inkscape:version="0.92.1 r15371"
   inkscape:export-filename="U:\apps\inventory\img\favicon-touch.png"
   inkscape:export-xdpi="96"
   inkscape:export-ydpi="96"><metadata
     id="metadata4521"><rdf:RDF><cc:Work
         rdf:about=""><dc:format>image/svg+xml</dc:format><dc:type
           rdf:resource="http://purl.org/dc/dcmitype/StillImage" /></cc:Work></rdf:RDF></metadata><defs
     id="defs4519" /><sodipodi:namedview
     pagecolor="#ffffff"
     bordercolor="#666666"
     borderopacity="1"
     objecttolerance="10"
     gridtolerance="10"
     guidetolerance="10"
     inkscape:pageopacity="0"
     inkscape:pageshadow="2"
     inkscape:window-width="2560"
     inkscape:window-height="1406"
     id="namedview4517"
     showgrid="false"
     inkscape:zoom="1.8437355"
     inkscape:cx="-103.59403"
     inkscape:cy="64.000504"
     inkscape:window-x="-11"
     inkscape:window-y="-11"
     inkscape:window-maximized="1"
     inkscape:current-layer="Ebene_1" /><path
     d="M -28.000156,-47.999 H 59.999156 C 71.04707,-47.999 80,-39.04207 80,-27.999156 V 60.000156 C 80,71.04807 71.04707,80.001 59.999156,80.001 H -28.000156 C -39.04507,80.001 -48,71.04807 -48,60.000156 V -27.999156 C -48,-39.04207 -39.04507,-47.999 -28.000156,-47.999 Z"
     id="path4504"
     style="fill:#0082c9;fill-opacity:1;stroke-width:0.99999213"
     inkscape:connector-curvature="0" /><rect
     x="-27.788158"
     y="-27.792156"
     width="40.664684"
     height="87.585312"
     id="rect4506"
     style="fill:#ffffff;stroke-width:0.99999213" /><rect
     x="19.124475"
     y="-27.792156"
     width="40.667683"
     height="40.664684"
     id="rect4508"
     style="fill:#ffffff;stroke-width:0.99999213" /><rect
     x="42.585289"
     y="19.125475"
     width="17.206867"
     height="40.667683"
     id="rect4510"
     style="fill:#ffffff;stroke-width:0.99999213" /><rect
     x="19.124475"
     y="19.125475"
     width="17.206867"
     height="17.206867"
     id="rect4512"
     style="fill:#ffffff;stroke-width:0.99999213" /><rect
     x="19.124475"
     y="42.586292"
     width="17.206867"
     height="17.206867"
     id="rect4514"
     style="fill:#ffffff;stroke-width:0.99999213" /></svg>

<svg width="128px" height="128px" enable-background="new -48 -48 128.001 128.001" version="1.1" viewBox="-48 -48 128 128" xml:space="preserve" xmlns="http://www.w3.org/2000/svg"><path d="m-28-47.999h87.999c11.048 0 20.001 8.9569 20.001 20v87.999c0 11.048-8.9529 20.001-20.001 20.001h-87.999c-11.045 0-20-8.9529-20-20.001v-87.999c0-11.043 8.9549-20 20-20z" fill="#0082c9" stroke-width=".99999"/><g fill="#fff" stroke-width=".99999"><rect x="-27.788" y="-27.792" width="40.665" height="87.585"/><rect x="19.124" y="-27.792" width="40.668" height="40.665"/><rect x="42.585" y="19.125" width="17.207" height="40.668"/><rect x="19.124" y="19.125" width="17.207" height="17.207"/><rect x="19.124" y="42.586" width="17.207" height="17.207"/></g></svg>
